X: 13408
T: Flitch Of Bacon, The
R: jig
M: 6/8
K: Gmajor
|:G|DGG B2 B|cAG FGA|DGG BAB|cAF G2 G|
DGG B2 B|cAG FGa|fed f2 d|cAF G2:|
|:B|def g2 g|fed gdB|def g2 g|fed cAF|
def g2 g|fed g2 d|fed f2 d|cAF G2:|

